X:1
T:Passion Chorale, 76.76 D
T:Passion Chorale, 76.76 D
T:Hans Leo Hassler, 1601
T:Public Domain Courtesy of the Cyber Hymnal™
C:Hans Leo Hassler, 1601
Z:Public Domain
Z:Courtesy of the Cyber Hymnal™
%%score ( 1 2 ) ( 3 4 )
L:1/8
Q:1/4=106
M:4/4
K:C
V:1 treble 
V:2 treble 
V:3 bass 
V:4 bass 
V:1
 [CE]2 | A2 [EG]2 F2 [CE]2 | D4 [CE]2 [EB]2 | [Ec]2 [Ec]2 (BA) B2 | [CA]6 [CE]2 | %5
 A2 [EG]2 F2 [CE]2 | D4 [CE]2 [EB]2 | [Ec]2 [Ec]2 (BA) B2 | [CA]6 [Ec]2 | [DB]2 G2 [CA]2 [FB]2 | %10
 c4 [Ec]2 [EG]2 | A2 [EG]2 [EA]2 [DF]2 | [^CE]6 [D=c]2 | [DB]2 [Dd]2 c2 [GB]2 | A4 [GB]2 [CE]2 | %15
 F2 [CE]2 [CD]2 [B,G]2 | [CE]6 |] %17
V:2
 x2 | (CD) x (A, B,) x3 | (C2 B,2) x4 | x4 E2 (ED) | x8 | (CD) x A, B, x3 | (C2 B,2) x4 | %7
 x4 E2 (ED) | x8 | x2 (DC) x4 | (F2 ED) x4 | (ED) x6 | x8 | x4 (E^F) x2 | (G2 ^F2) x4 | (CB,) x6 | %16
 x6 |] %17
V:3
 A,2 | (A,B,) [E,C]2 [D,D]2 [C,G,]2 | ([F,,A,]2 [G,,G,]2) [C,G,]2 [^G,,B,]2 | %3
 A,2 A,2 [E,A,]2 [E,^G,]2 | [A,,A,]6 A,2 | (A,B,) [E,C]2 [D,D]2 [C,G,]2 | %6
 ([F,,A,]2 [G,,G,]2) [C,G,]2 [^G,,B,]2 | A,2 A,2 [E,A,]2 [E,^G,]2 | [A,,A,]6 (A,G,) | %9
 [D,F,]2 [E,G,]2 F,2 (F,G,) | (A,2 G,F,) [C,G,]2 (C_B,) | [F,A,]2 [^C,A,]2 A,2 A,2 | A,6 [^F,A,]2 | %13
 G,2 [^F,A,]2 (G,A,) (B,G,) | ([C,E]2 [D,D]2) [G,,D]2 G,2 | [A,,F,]2 [G,,G,]2 [F,,A,]2 [G,,G,]2 | %16
 [C,G,]6 |] %17
V:4
 (A,G,) | F,2 x6 | x8 | (A,,B,,) (C,D,) x4 | x6 (A,G,) | F,2 x6 | x8 | (A,,B,,) (C,D,) x4 | %8
 x6 A,,2 | x4 (F,E,) D,2 | C,4 C,2 x2 | x4 (D,E,) (F,G,) | A,6 x2 | G,2 E,2 D,2 x2 | x6 (C,B,,) | %15
 x8 | x6 |] %17

